X:2
T:Ton simple gavotte
%T:TS2
R:Gavotte des montagnes
C:Traditionnel
D:Pennoù Skoulm
Q:C3=156
P:C3D
M:12/8
K:C
P:C
%%MIDI gchord fzzczzfzcfzz
%%MIDI chordprog 105
%%MIDI chordvol 40
%%MIDI bassprog 32
%%MIDI bassvol 127
%%MIDI program 71
|: "Am"A2 e "C"e2 c "Dm"d2 e "F"f3|"G"eee "Dm"d2 d "F"c3 "Am"c3::\
	"Am"A2 B "C"c2 d "D"e2 c "F"A3|c2 c "G"BAG "D"A3 "Am"A3:|
K:BPhr
P:D
|: "Bm"B2 f f2 d "C"e2 f g3|"Am"fff e2 e "Bm"d3 d3::\
	"Bm"B2 c "C"d2 e f2 d "Bm"B3|"C"d2 d cBA "Bm"B3 B3:|
